public/socials/white_youtube.svg

<svg width="42" height="42" viewBox="0 0 42 42" fill="none" xmlns="http://www.w3.org/2000/svg">
<g clip-path="url(#clip0_629_224)">
<path d="M21.1339 5.24756H21.3675C23.5252 5.25543 34.4584 5.33418 37.4062 6.12693C38.2974 6.36888 39.1095 6.84047 39.7613 7.49458C40.4131 8.14869 40.8818 8.96242 41.1206 9.85443C41.3857 10.8519 41.5721 12.1723 41.6981 13.5347L41.7244 13.8077L41.7821 14.4902L41.8031 14.7632C41.9737 17.1624 41.9947 19.4094 41.9974 19.9003V20.0972C41.9947 20.6064 41.9711 23.0057 41.7821 25.5047L41.7611 25.7803L41.7375 26.0533C41.6062 27.5548 41.412 29.0458 41.1206 30.1431C40.8825 31.0354 40.4141 31.8495 39.7621 32.5038C39.1102 33.158 38.2978 33.6293 37.4062 33.8706C34.3612 34.6896 22.7876 34.7473 21.1837 34.7499H20.811C19.9999 34.7499 16.6451 34.7342 13.1276 34.6134L12.6814 34.5977L12.453 34.5872L12.0041 34.5688L11.5552 34.5504C8.6415 34.4218 5.86687 34.2144 4.5885 33.8679C3.69729 33.6269 2.88505 33.156 2.23315 32.5023C1.58126 31.8485 1.1126 31.035 0.874125 30.1431C0.58275 29.0484 0.3885 27.5548 0.25725 26.0533L0.23625 25.7777L0.21525 25.5047C0.0856999 23.726 0.0139121 21.9435 0 20.1602L0 19.8373C0.00525 19.2729 0.02625 17.3226 0.168 15.1701L0.186375 14.8997L0.19425 14.7632L0.21525 14.4902L0.273 13.8077L0.29925 13.5347C0.42525 12.1723 0.611625 10.8493 0.87675 9.85443C1.11482 8.96206 1.5833 8.14795 2.23522 7.49372C2.88714 6.8395 3.69959 6.36815 4.59112 6.12693C5.8695 5.78568 8.64412 5.57568 11.5579 5.44443L12.0041 5.42606L12.4556 5.41031L12.6814 5.40243L13.1302 5.38406C15.6285 5.30367 18.1277 5.25904 20.6272 5.25018H21.1339V5.24756ZM16.8 13.6738V26.3211L27.7121 20.0001L16.8 13.6738Z" fill="white"/>
</g>
<defs>
<clipPath id="clip0_629_224">
<rect width="42" height="42" fill="white"/>
</clipPath>
</defs>
</svg>

<svg width="42" height="42" fill="none" xmlns="http://www.w3.org/2000/svg"><g clip-path="url(#a)"><path d="M21.134 5.248h.233c2.158.007 13.091.086 16.04.879a5.276 5.276 0 0 1 3.714 3.727c.265.998.451 2.318.577 3.68l.026.274.058.682.021.273c.17 2.4.192 4.646.194 5.137v.197a84.29 84.29 0 0 1-.215 5.408l-.02.275-.025.273c-.13 1.502-.325 2.993-.616 4.09a5.269 5.269 0 0 1-3.715 3.728c-3.045.819-14.618.876-16.222.879h-.373c-.811 0-4.166-.016-7.683-.137l-.447-.015-.228-.01-.449-.02-.449-.018c-2.913-.128-5.688-.336-6.966-.682a5.269 5.269 0 0 1-3.715-3.725c-.291-1.095-.485-2.588-.617-4.09l-.02-.275-.022-.273A82.427 82.427 0 0 1 0 20.16v-.323c.005-.564.026-2.514.168-4.667l.018-.27.008-.137.021-.273.058-.682.026-.273c.126-1.363.313-2.686.578-3.68A5.268 5.268 0 0 1 4.59 6.126c1.279-.341 4.053-.551 6.967-.683l.446-.018.452-.016.225-.008.45-.018c2.498-.08 4.997-.125 7.496-.134h.507v-.002zM16.8 13.674V26.32l10.912-6.32L16.8 13.673z" fill="#fff"/></g><defs><clipPath id="a"><path fill="#fff" d="M0 0h42v42H0z"/></clipPath></defs></svg>
